X:1
T: Lord Elgin's Reel
C:
R:Strathspey
Q: 128
K:G
M:4/4
L:1/16
|:f2|g3d BG3 ce3 d4|g3d BG3 E3A FD3|g3d BG3 ce3 d4|B3g e3a fd3 g2f2|
g3d BG3 ce3 d4|g3d BG3 E3A FD3|g3d BG3 ce3 d4|B3g e3a fd3 g2f2|
e3e g3e b3g e3B|GG3 B3A G3B G2E2|e3e g3e ^d3f B3a|g3e B3^d e4 f4|
g3d BG3 ce3 d4|g3d BG3 EA3 FD3|g3d BG3 ce3 d4|e3a gfef g4 g2:|
